X: 7607
T: Cogar Na Gaoithe
R: barndance
M: 4/4
K: Adorian
|:EGAB c3A|BGdc B~G3|EGAB c~A3|~G3B BAAG|
EGAB c3A|BGd2 B~G3|=F2ED ~E3^F|1 GABG ABAG:|2 GABG A4||
|:~e3d ~g3e|dBBA B~G3|~e3d ~g3a|bage ~a3g|
~e3d ~g3e|dBBA B~G3|GAGE D2GE|DEGA BAA2:|

